styles/2/Numix/48/actions/brown-document-open-recent.svg

<?xml version="1.0" encoding="UTF-8" standalone="no"?>
<svg
   xmlns:dc="http://purl.org/dc/elements/1.1/"
   xmlns:cc="http://creativecommons.org/ns#"
   xmlns:rdf="http://www.w3.org/1999/02/22-rdf-syntax-ns#"
   xmlns:svg="http://www.w3.org/2000/svg"
   xmlns="http://www.w3.org/2000/svg"
   xmlns:sodipodi="http://sodipodi.sourceforge.net/DTD/sodipodi-0.dtd"
   xmlns:inkscape="http://www.inkscape.org/namespaces/inkscape"
   width="48"
   height="48"
   viewBox="0 0 48 48"
   id="svg2"
   version="1.1"
   inkscape:version="0.91 r"
   sodipodi:docname="brown-document-open-recent.svg">
  <metadata
     id="metadata16">
    <rdf:RDF>
      <cc:Work
         rdf:about="">
        <dc:format>image/svg+xml</dc:format>
        <dc:type
           rdf:resource="http://purl.org/dc/dcmitype/StillImage" />
        <dc:title />
      </cc:Work>
    </rdf:RDF>
  </metadata>
  <defs
     id="defs14" />
  <sodipodi:namedview
     pagecolor="#ffffff"
     bordercolor="#666666"
     borderopacity="1"
     objecttolerance="10"
     gridtolerance="10"
     guidetolerance="10"
     inkscape:pageopacity="0"
     inkscape:pageshadow="2"
     inkscape:window-width="1366"
     inkscape:window-height="747"
     id="namedview12"
     showgrid="false"
     inkscape:zoom="4.9166667"
     inkscape:cx="51.202927"
     inkscape:cy="38.847127"
     inkscape:window-x="0"
     inkscape:window-y="21"
     inkscape:window-maximized="1"
     inkscape:current-layer="svg2" />
  <path
     style="color:#000000;font-style:normal;font-variant:normal;font-weight:normal;font-stretch:normal;font-size:medium;line-height:normal;font-family:Sans;-inkscape-font-specification:Sans;text-indent:0;text-align:start;text-decoration:none;text-decoration-line:none;letter-spacing:normal;word-spacing:normal;text-transform:none;direction:ltr;block-progression:tb;writing-mode:lr-tb;baseline-shift:baseline;text-anchor:start;display:inline;overflow:visible;visibility:visible;fill:#8d6e63;fill-opacity:1;fill-rule:nonzero;stroke:none;stroke-width:1;marker:none;enable-background:accumulate"
     d="m 6.000022,6.0000004 c -1,0 -2,1 -2,2 L 4.000023,18 l -1,0 c -1,0 -2.00556897,0.949207 -2,2 l -1e-6,20 c 1.28e-4,1.120734 1.037763,1.9999 2.1875,2 l 41.625001,0 c 1.1875,0 2.1875,-1 2.1875,-2 l 0,-17 c 0,-1 -1,-2 -2,-2 l -2,0 0,-12.9999996 c 0,-1 -1,-2 -2,-2 z"
     id="path3770-4"
     inkscape:connector-curvature="0"
     sodipodi:nodetypes="sscsccccccccsss" />
  <path
     inkscape:connector-curvature="0"
     style="color:#000000;font-style:normal;font-variant:normal;font-weight:normal;font-stretch:normal;font-size:medium;line-height:normal;font-family:Sans;-inkscape-font-specification:Sans;text-indent:0;text-align:start;text-decoration:none;text-decoration-line:none;letter-spacing:normal;word-spacing:normal;text-transform:none;direction:ltr;block-progression:tb;writing-mode:lr-tb;baseline-shift:baseline;text-anchor:start;display:inline;overflow:visible;visibility:visible;fill:#000000;fill-opacity:0.32156863;fill-rule:nonzero;stroke:none;stroke-width:1;marker:none;enable-background:accumulate"
     d="m 6.000022,6.0000004 c -1,0 -2,1 -2,2 L 4.000023,18 l -1,0 c -1,0 -2.00556897,0.949207 -2,2 l -1e-6,20 c 1.28e-4,1.120734 1.037763,1.9999 2.1875,2 l 41.625001,0 c 1.1875,0 2.1875,-1 2.1875,-2 l 0,-17 c 0,-1 -1,-2 -2,-2 l -2,0 0,-12.9999996 c 0,-1 -1,-2 -2,-2 z M 3.000023,19 l 24,0 c 0.507314,0 1,0.494167 1,1 l 0,2 17,0 c 0.540858,0 1,0.471809 1,1 l 0,17 c 0,0.553755 -0.452115,1 -1,1 L 3.000022,41 c -0.512725,0 -1,-0.446246 -1,-1 l 1e-6,-20 c 0,-0.543318 0.479042,-1 1,-1 z"
     id="path3779-9"
     sodipodi:nodetypes="sscscccsssscsssssscssssssss" />
  <g
     transform="matrix(1,0,0,0.28570929,-1.42373,7.4758984)"
     id="g6">
    <rect
       width="28"
       x="11.424"
       y="8.835"
       height="28"
       style="fill:#ffffff"
       id="rect8" />
  </g>
  <path
     inkscape:connector-curvature="0"
     style="fill:#cccccc"
     d="m 13.00027,13 22,0 0,2 -22,0 z"
     id="rect12" />
  <rect
     style="fill:#cccccc"
     id="rect14"
     height="1"
     y="17"
     x="13"
     width="22" />
  <path
     inkscape:connector-curvature="0"
     style="fill:#ffffff;fill-opacity:1;fill-rule:evenodd;stroke:none"
     d="m 29,18 9,0 0,3 -9,0 z"
     id="rect3018" />
  <path
     style="fill:#ffffff;fill-opacity:1;stroke:none"
     d="m 29,20 c 0,-0.998467 -1,-2 -2,-2 l 2,0 z"
     id="path3021"
     inkscape:connector-curvature="0"
     sodipodi:nodetypes="cccc" />
  <path
     inkscape:connector-curvature="0"
     style="fill:#cccccc;fill-opacity:1;fill-rule:evenodd;stroke:none"
     d="m 29,18 6.000001,0 0,0.999999 -6.000001,0 z"
     id="rect3797" />
  <path
     inkscape:connector-curvature="0"
     style="fill:#cccccc;fill-opacity:1;fill-rule:evenodd;stroke:none"
     d="m 27,18 c 0.647293,0 1.280165,0.433194 1.65625,1 L 29,19 l 0,-1 -2,0 z"
     id="rect3799" />
  <path
     style="fill:#859900;fill-rule:evenodd"
     d="M 43.523438 34.339844 C 43.59375 37.835938 41.75 41.097656 38.699219 42.867188 C 35.652344 44.636719 31.875 44.636719 28.824219 42.867188 C 25.773438 41.097656 23.929688 37.835938 24.003906 34.339844 C 23.929688 30.839844 25.773438 27.578125 28.824219 25.808594 C 31.875 24.039062 35.652344 24.039062 38.699219 25.808594 C 41.75 27.578125 43.59375 30.839844 43.523438 34.339844 Z "
     id="path8" />
  <path
     style="fill:#fff"
     d="M 39.101562 28.140625 C 38.894531 28.214844 38.71875 28.355469 38.601562 28.539062 L 33.28125 33.738281 L 29.960938 30.539062 C 29.828125 30.097656 29.410156 29.800781 28.945312 29.824219 C 28.484375 29.851562 28.101562 30.191406 28.015625 30.644531 C 27.933594 31.101562 28.175781 31.554688 28.601562 31.738281 L 32.601562 35.738281 C 32.984375 36.097656 33.578125 36.097656 33.960938 35.738281 L 39.960938 29.738281 C 40.195312 29.429688 40.226562 29.007812 40.042969 28.664062 C 39.859375 28.320312 39.488281 28.117188 39.101562 28.140625 Z "
     id="path10" />
</svg>

<svg xmlns="http://www.w3.org/2000/svg" viewBox="0 0 48 48">
 <path d="m 6 6 c -1 0 -2 1 -2 2 l 0 10 l -1 0 c -1 0 -2.01 0.949 -2 2 l 0 20 c 0 1.121 1.038 2 2.188 2 l 41.625 0 c 1.188 0 2.188 -1 2.188 -2 l 0 -17 c 0 -1 -1 -2 -2 -2 l -2 0 0 -13 c 0 -1 -1 -2 -2 -2 z" style="visibility:visible;fill:#8d6e63;fill-opacity:1;stroke:none;display:inline;color:#000;fill-rule:nonzero"/>
 <path d="m 6 6 c -1 0 -2 1 -2 2 l 0 10 l -1 0 c -1 0 -2.01 0.949 -2 2 l 0 20 c 0 1.121 1.038 2 2.188 2 l 41.625 0 c 1.188 0 2.188 -1 2.188 -2 l 0 -17 c 0 -1 -1 -2 -2 -2 l -2 0 0 -13 c 0 -1 -1 -2 -2 -2 z m -3 13 l 24 0 c 0.507 0 1 0.494 1 1 l 0 2 17 0 c 0.541 0 1 0.472 1 1 l 0 17 c 0 0.554 -0.452 1 -1 1 l -42 0 c -0.513 0 -1 -0.446 -1 -1 l 0 -20 c 0 -0.543 0.479 -1 1 -1 z" style="visibility:visible;fill:#000;fill-opacity:0.322;stroke:none;display:inline;color:#000;fill-rule:nonzero"/>
 <g transform="matrix(1,0,0,0.28570929,-1.42373,7.4758984)">
  <rect width="28" x="11.424" y="8.835" height="28" style="fill:#fff"/>
 </g>
 <path d="m 13 13 22 0 0 2 -22 0 z" style="fill:#ccc"/>
 <rect height="1" y="17" x="13" width="22" style="fill:#ccc"/>
 <path d="m 29 18 9 0 0 3 -9 0 z" style="fill:#fff;fill-opacity:1;stroke:none;fill-rule:evenodd"/>
 <path d="m 29 20 c 0 -0.998 -1 -2 -2 -2 l 2 0 z" style="fill:#fff;fill-opacity:1;stroke:none"/>
 <path d="m 29 18 6 0 0 1 -6 0 z" style="fill:#ccc;fill-opacity:1;stroke:none;fill-rule:evenodd"/>
 <path d="m 27 18 c 0.647 0 1.28 0.433 1.656 1 l 0.344 0 l 0 -1 -2 0 z" style="fill:#ccc;fill-opacity:1;stroke:none;fill-rule:evenodd"/>
 <path d="m 43.523 34.34 c 0.07 3.496 -1.773 6.758 -4.824 8.527 c -3.047 1.77 -6.824 1.77 -9.875 0 c -3.051 -1.77 -4.895 -5.03 -4.82 -8.527 c -0.074 -3.5 1.77 -6.762 4.82 -8.531 c 3.051 -1.77 6.828 -1.77 9.875 0 c 3.051 1.77 4.895 5.03 4.824 8.531 Z" style="fill:#859900;fill-rule:evenodd"/>
 <path d="m 39.1 28.14 c -0.207 0.074 -0.383 0.215 -0.5 0.398 l -5.32 5.199 l -3.32 -3.199 c -0.133 -0.441 -0.551 -0.738 -1.016 -0.715 c -0.461 0.027 -0.844 0.367 -0.93 0.82 c -0.082 0.457 0.16 0.91 0.586 1.094 l 4 4 c 0.383 0.359 0.977 0.359 1.359 0 l 6 -6 c 0.234 -0.309 0.266 -0.73 0.082 -1.074 c -0.184 -0.344 -0.555 -0.547 -0.941 -0.523 Z" style="fill:#fff"/>
</svg>
